packages/illustrations/src/mail.svg

<svg width="177" height="177" viewBox="0 0 177 177" fill="none" xmlns="http://www.w3.org/2000/svg">
<circle opacity="0.5" cx="91" cy="96" r="75" fill="#C5DCFF"/>
<circle opacity="0.5" r="4" transform="matrix(-1 0 0 1 20 40)" fill="#C5DCFF"/>
<circle opacity="0.5" r="2.5" transform="matrix(-1 0 0 1 2.5 50.5)" fill="#C5DCFF"/>
<circle opacity="0.5" r="5.5" transform="matrix(-1 0 0 1 171.5 58.5)" fill="#C5DCFF"/>
<circle opacity="0.5" r="2.5" transform="matrix(-1 0 0 1 164.5 37.5)" fill="#C5DCFF"/>
<circle opacity="0.5" r="2.5" transform="matrix(-1 0 0 1 174.5 116.5)" fill="#C5DCFF"/>
<g filter="url(#filter0_d_776_13695)">
<path d="M20 72H164V143C164 150.732 157.732 157 150 157H34C26.268 157 20 150.732 20 143V72Z" fill="#526DFF" fill-opacity="0.01" shape-rendering="crispEdges"/>
</g>
<path d="M79.7406 21.4042C86.8288 15.4006 97.2187 15.4022 104.305 21.408L164.004 72.0039H20L79.7406 21.4042Z" fill="#0160CB"/>
<path d="M20 72H164V143C164 150.732 157.732 157 150 157H34C26.268 157 20 150.732 20 143V72Z" fill="#0160CB"/>
<path fill-rule="evenodd" clip-rule="evenodd" d="M35 59.2991L69.592 30H114.443L149 59.2878V94.5H35V59.2991Z" fill="#0E50B6"/>
<rect x="40" y="30" width="104" height="88" rx="5" fill="url(#paint0_linear_776_13695)"/>
<rect x="72" y="45" width="40" height="4" rx="2" fill="#F67E7E"/>
<path fill-rule="evenodd" clip-rule="evenodd" d="M59 59C57.8954 59 57 59.8954 57 61C57 62.1046 57.8954 63 59 63H125C126.105 63 127 62.1046 127 61C127 59.8954 126.105 59 125 59H59ZM59 72C57.8954 72 57 72.8954 57 74C57 75.1046 57.8954 76 59 76H125C126.105 76 127 75.1046 127 74C127 72.8954 126.105 72 125 72H59ZM57 87C57 85.8954 57.8954 85 59 85H125C126.105 85 127 85.8954 127 87C127 88.1046 126.105 89 125 89H59C57.8954 89 57 88.1046 57 87ZM59 98C57.8954 98 57 98.8954 57 100C57 101.105 57.8954 102 59 102H125C126.105 102 127 101.105 127 100C127 98.8954 126.105 98 125 98H59Z" fill="#DDE2E8"/>
<rect x="40" y="30" width="104" height="88" rx="5" fill="url(#paint1_linear_776_13695)"/>
<path fill-rule="evenodd" clip-rule="evenodd" d="M158.931 153.782C156.508 155.792 153.395 157 150 157H34C26.268 157 20 150.732 20 143V72H20.093L158.931 153.782Z" fill="url(#paint2_linear_776_13695)"/>
<path fill-rule="evenodd" clip-rule="evenodd" d="M20.0686 72.2354L158.793 153.95C158.863 153.894 158.932 153.838 159 153.782L20.1616 72H20.0686V72.2354Z" fill="url(#paint3_linear_776_13695)"/>
<g filter="url(#filter1_d_776_13695)">
<path fill-rule="evenodd" clip-rule="evenodd" d="M25.0686 153.782C27.4924 155.792 30.6051 157 34 157H150C157.732 157 164 150.732 164 143V72H163.907L25.0686 153.782Z" fill="url(#paint4_linear_776_13695)"/>
</g>
<path fill-rule="evenodd" clip-rule="evenodd" d="M164 72.2354L25.2755 153.95C25.206 153.894 25.137 153.838 25.0686 153.782L163.907 72H164V72.2354Z" fill="url(#paint5_linear_776_13695)"/>
<rect x="107" y="129" width="42" height="4" rx="2" fill="url(#paint6_linear_776_13695)"/>
<rect x="107" y="118" width="42" height="4" rx="2" fill="url(#paint7_linear_776_13695)"/>
<path opacity="0.1" fill-rule="evenodd" clip-rule="evenodd" d="M65 157L80 150H63L48 157L65 157ZM101 157L116 150H99L84 157L101 157ZM152 150L137 157L120 157L135 150H152Z" fill="black"/>
<path opacity="0.1" fill-rule="evenodd" clip-rule="evenodd" d="M27 76.0686L20.9089 72.4807L20 73.0001V84.0001L27 80.0001V76.0686ZM20 104V93.0001L27 89.0001V100L20 104ZM20 113V124L27 120V109L20 113ZM20.0338 143.981C20.0114 143.657 20 143.33 20 143L20 133L27 129V140L20.0338 143.981Z" fill="black"/>
<path opacity="0.1" fill-rule="evenodd" clip-rule="evenodd" d="M164 80V72H163.907L157 76.0685V84L164 80ZM164 140V129L157 133V144L164 140ZM164 120V109L157 113V124L164 120ZM164 89V100L157 104V93L164 89Z" fill="black"/>
<defs>
<filter id="filter0_d_776_13695" x="12" y="68" width="160" height="101" filterUnits="userSpaceOnUse" color-interpolation-filters="sRGB">
<feFlood flood-opacity="0" result="BackgroundImageFix"/>
<feColorMatrix in="SourceAlpha" type="matrix" values="0 0 0 0 0 0 0 0 0 0 0 0 0 0 0 0 0 0 127 0" result="hardAlpha"/>
<feOffset dy="4"/>
<feGaussianBlur stdDeviation="4"/>
<feComposite in2="hardAlpha" operator="out"/>
<feColorMatrix type="matrix" values="0 0 0 0 0 0 0 0 0 0.481992 0 0 0 0 0.875 0 0 0 0.24 0"/>
<feBlend mode="normal" in2="BackgroundImageFix" result="effect1_dropShadow_776_13695"/>
<feBlend mode="normal" in="SourceGraphic" in2="effect1_dropShadow_776_13695" result="shape"/>
</filter>
<filter id="filter1_d_776_13695" x="19.0686" y="66" width="146.931" height="93" filterUnits="userSpaceOnUse" color-interpolation-filters="sRGB">
<feFlood flood-opacity="0" result="BackgroundImageFix"/>
<feColorMatrix in="SourceAlpha" type="matrix" values="0 0 0 0 0 0 0 0 0 0 0 0 0 0 0 0 0 0 127 0" result="hardAlpha"/>
<feOffset dx="-2" dy="-2"/>
<feGaussianBlur stdDeviation="2"/>
<feComposite in2="hardAlpha" operator="out"/>
<feColorMatrix type="matrix" values="0 0 0 0 0 0 0 0 0 0.482353 0 0 0 0 0.87451 0 0 0 0.16 0"/>
<feBlend mode="normal" in2="BackgroundImageFix" result="effect1_dropShadow_776_13695"/>
<feBlend mode="normal" in="SourceGraphic" in2="effect1_dropShadow_776_13695" result="shape"/>
</filter>
<linearGradient id="paint0_linear_776_13695" x1="92" y1="30" x2="92" y2="118" gradientUnits="userSpaceOnUse">
<stop offset="0.526042" stop-color="white"/>
</linearGradient>
<linearGradient id="paint1_linear_776_13695" x1="92" y1="30" x2="92" y2="118" gradientUnits="userSpaceOnUse">
<stop offset="0.369792" stop-color="white" stop-opacity="0"/>
<stop offset="1" stop-color="#0279D7" stop-opacity="0.8"/>
</linearGradient>
<linearGradient id="paint2_linear_776_13695" x1="140" y1="154.5" x2="14" y2="108.5" gradientUnits="userSpaceOnUse">
<stop stop-color="#015CC6"/>
<stop offset="1" stop-color="#018DF7"/>
</linearGradient>
<linearGradient id="paint3_linear_776_13695" x1="155.669" y1="153.473" x2="21.8785" y2="75.9726" gradientUnits="userSpaceOnUse">
<stop stop-color="#0277E1"/>
<stop offset="0.257366" stop-color="white"/>
<stop offset="1" stop-color="#1C89ED"/>
</linearGradient>
<linearGradient id="paint4_linear_776_13695" x1="44" y1="154.5" x2="170" y2="108.5" gradientUnits="userSpaceOnUse">
<stop stop-color="#015CC6"/>
<stop offset="1" stop-color="#018DF7"/>
</linearGradient>
<linearGradient id="paint5_linear_776_13695" x1="28.3992" y1="153.473" x2="162.19" y2="75.9726" gradientUnits="userSpaceOnUse">
<stop stop-color="#0277E1"/>
<stop offset="0.257366" stop-color="white"/>
<stop offset="1" stop-color="#1C89ED"/>
</linearGradient>
<linearGradient id="paint6_linear_776_13695" x1="107" y1="131" x2="149" y2="131" gradientUnits="userSpaceOnUse">
<stop stop-color="#018DF8"/>
<stop offset="1" stop-color="#0160CA"/>
</linearGradient>
<linearGradient id="paint7_linear_776_13695" x1="107" y1="120" x2="149" y2="120" gradientUnits="userSpaceOnUse">
<stop stop-color="#018DF8"/>
<stop offset="1" stop-color="#0160CA"/>
</linearGradient>
</defs>
</svg>

<svg width="177" height="177" fill="none" xmlns="http://www.w3.org/2000/svg">
  <circle cx="91" cy="96" r="75" fill="#C5DCFF" opacity=".5"/>
  <circle r="4" fill="#C5DCFF" opacity=".5" transform="matrix(-1 0 0 1 20 40)"/>
  <circle r="2.5" fill="#C5DCFF" opacity=".5" transform="matrix(-1 0 0 1 2.5 50.5)"/>
  <circle r="5.5" fill="#C5DCFF" opacity=".5" transform="matrix(-1 0 0 1 171.5 58.5)"/>
  <circle r="2.5" fill="#C5DCFF" opacity=".5" transform="matrix(-1 0 0 1 164.5 37.5)"/>
  <circle r="2.5" fill="#C5DCFF" opacity=".5" transform="matrix(-1 0 0 1 174.5 116.5)"/>
  <g filter="url(#a)">
    <path d="M20 72h144v71a14 14 0 0 1-14 14H34a14 14 0 0 1-14-14V72Z" shape-rendering="crispEdges"/>
  </g>
  <path fill="#0160CB" d="M79.7 21.4a19 19 0 0 1 24.6 0L164 72H20l59.7-50.6ZM20 72h144v71a14 14 0 0 1-14 14H34a14 14 0 0 1-14-14V72Z"/>
  <path fill="#0E50B6" fill-rule="evenodd" d="M35 59.3 69.6 30h44.8L149 59.3v35.2H35V59.3Z" clip-rule="evenodd"/>
  <rect width="104" height="88" x="40" y="30" fill="url(#b)" rx="5"/>
  <rect width="40" height="4" x="72" y="45" fill="#F67E7E" rx="2"/>
  <path fill="#DDE2E8" fill-rule="evenodd" d="M59 59a2 2 0 1 0 0 4h66a2 2 0 1 0 0-4H59Zm0 13a2 2 0 1 0 0 4h66a2 2 0 1 0 0-4H59Zm-2 15c0-1.1.9-2 2-2h66a2 2 0 1 1 0 4H59a2 2 0 0 1-2-2Zm2 11a2 2 0 1 0 0 4h66a2 2 0 1 0 0-4H59Z" clip-rule="evenodd"/>
  <rect width="104" height="88" x="40" y="30" fill="url(#c)" rx="5"/>
  <path fill="url(#d)" fill-rule="evenodd" d="M159 153.8a14 14 0 0 1-9 3.2H34a14 14 0 0 1-14-14V72l139 81.8Z" clip-rule="evenodd"/>
  <path fill="url(#e)" fill-rule="evenodd" d="M20 72.2 158.9 154l.2-.1L20.2 72H20v.2Z" clip-rule="evenodd"/>
  <g filter="url(#f)">
    <path fill="url(#g)" fill-rule="evenodd" d="M25 153.8a14 14 0 0 0 9 3.2h116a14 14 0 0 0 14-14V72L25 153.8Z" clip-rule="evenodd"/>
  </g>
  <path fill="url(#h)" fill-rule="evenodd" d="M164 72.2 25.3 154l-.2-.1L163.9 72h.1v.2Z" clip-rule="evenodd"/>
  <rect width="42" height="4" x="107" y="129" fill="url(#i)" rx="2"/>
  <rect width="42" height="4" x="107" y="118" fill="url(#j)" rx="2"/>
  <path fill="#000" fill-rule="evenodd" d="m65 157 15-7H63l-15 7h17Zm36 0 15-7H99l-15 7h17Zm51-7-15 7h-17l15-7h17ZM27 76l-6-3.5-1 .5v11l7-4v-4Zm-7 28V93l7-4v11l-7 4Zm0 9v11l7-4v-11l-7 4Zm0 31v-11l7-4v11l-7 4Zm144-64v-8l-7 4v8l7-4Zm0 60v-11l-7 4v11l7-4Zm0-20v-11l-7 4v11l7-4Zm0-31v11l-7 4V93l7-4Z" clip-rule="evenodd" opacity=".1"/>
  <defs>
    <linearGradient id="b" x1="92" x2="92" y1="30" y2="118" gradientUnits="userSpaceOnUse">
      <stop offset=".5" stop-color="#fff"/>
    </linearGradient>
    <linearGradient id="c" x1="92" x2="92" y1="30" y2="118" gradientUnits="userSpaceOnUse">
      <stop offset=".4" stop-color="#fff" stop-opacity="0"/>
      <stop offset="1" stop-color="#0279D7" stop-opacity=".8"/>
    </linearGradient>
    <linearGradient id="d" x1="140" x2="14" y1="154.5" y2="108.5" gradientUnits="userSpaceOnUse">
      <stop stop-color="#015CC6"/>
      <stop offset="1" stop-color="#018DF7"/>
    </linearGradient>
    <linearGradient id="e" x1="155.7" x2="21.9" y1="153.5" y2="76" gradientUnits="userSpaceOnUse">
      <stop stop-color="#0277E1"/>
      <stop offset=".3" stop-color="#fff"/>
      <stop offset="1" stop-color="#1C89ED"/>
    </linearGradient>
    <linearGradient id="g" x1="44" x2="170" y1="154.5" y2="108.5" gradientUnits="userSpaceOnUse">
      <stop stop-color="#015CC6"/>
      <stop offset="1" stop-color="#018DF7"/>
    </linearGradient>
    <linearGradient id="h" x1="28.4" x2="162.2" y1="153.5" y2="76" gradientUnits="userSpaceOnUse">
      <stop stop-color="#0277E1"/>
      <stop offset=".3" stop-color="#fff"/>
      <stop offset="1" stop-color="#1C89ED"/>
    </linearGradient>
    <linearGradient id="i" x1="107" x2="149" y1="131" y2="131" gradientUnits="userSpaceOnUse">
      <stop stop-color="#018DF8"/>
      <stop offset="1" stop-color="#0160CA"/>
    </linearGradient>
    <linearGradient id="j" x1="107" x2="149" y1="120" y2="120" gradientUnits="userSpaceOnUse">
      <stop stop-color="#018DF8"/>
      <stop offset="1" stop-color="#0160CA"/>
    </linearGradient>
    <filter id="a" width="160" height="101" x="12" y="68" color-interpolation-filters="sRGB" filterUnits="userSpaceOnUse">
      <feFlood flood-opacity="0" result="BackgroundImageFix"/>
      <feColorMatrix in="SourceAlpha" result="hardAlpha" values="0 0 0 0 0 0 0 0 0 0 0 0 0 0 0 0 0 0 127 0"/>
      <feOffset dy="4"/>
      <feGaussianBlur stdDeviation="4"/>
      <feComposite in2="hardAlpha" operator="out"/>
      <feColorMatrix values="0 0 0 0 0 0 0 0 0 0.481992 0 0 0 0 0.875 0 0 0 0.24 0"/>
      <feBlend in2="BackgroundImageFix" result="effect1_dropShadow_776_13695"/>
      <feBlend in="SourceGraphic" in2="effect1_dropShadow_776_13695" result="shape"/>
    </filter>
    <filter id="f" width="146.9" height="93" x="19.1" y="66" color-interpolation-filters="sRGB" filterUnits="userSpaceOnUse">
      <feFlood flood-opacity="0" result="BackgroundImageFix"/>
      <feColorMatrix in="SourceAlpha" result="hardAlpha" values="0 0 0 0 0 0 0 0 0 0 0 0 0 0 0 0 0 0 127 0"/>
      <feOffset dx="-2" dy="-2"/>
      <feGaussianBlur stdDeviation="2"/>
      <feComposite in2="hardAlpha" operator="out"/>
      <feColorMatrix values="0 0 0 0 0 0 0 0 0 0.482353 0 0 0 0 0.87451 0 0 0 0.16 0"/>
      <feBlend in2="BackgroundImageFix" result="effect1_dropShadow_776_13695"/>
      <feBlend in="SourceGraphic" in2="effect1_dropShadow_776_13695" result="shape"/>
    </filter>
  </defs>
</svg>
